X:1
T:Melody in F
T:MELODY IN F
T:ANTON RUBINSTEIN
T:Op.3 No.1
T:Public Domain
T:Public Domain
T:Public Domain
T:Public Domain
T:Public Domain
C:Anton Rubinstein
Z:Public Domain
%%score { ( 1 2 ) | ( 3 4 ) }
L:1/8
Q:1/4=85
M:2/4
K:F
V:1 treble nm="Piano."
V:2 treble 
V:3 bass 
V:4 bass 
V:1
"^Moderato assai."!p! z [FAc] z [FAc] | z [EBc] z [EBc] | z [Acf] z [Acf] | z [_eac'] z [eac'] | %4
 z [dgb] z [Bdg] | z [Bea] z [Beg] | z [Acf] z [F_Ad] | z [GBe] z [EBd] | z [FAc] z [FAc] | %9
 z [EBc] z!<(! [EBc] | z [Acf] z [Acf]!<)! | z [^fad'] z [dac'] | z!>(! [dgb] z [B_dg] | %13
 z [Bea]!>)! z [Beg] | z [Acf] z [FA] | z [F_Ad] z [EG] | z [FAc] z [FAc] | z [EBc] z [EBc] | %18
 z [Acf] z [Acf] | z [_eac'] z [eac'] | z [dgb] z [B_dg] | z [Bea] z [Beg] | z [Acf] z [F_Ad] | %23
 z [GBe] z [EBd] | z [FAc] z [FAc] | z [EBc] z!<(! [EBc] | z [Acf] z!<)! [Acf] | %27
 z [^fad'] z [dac'] | z [dgb] z!>(! [B_dg] | z [Bea] z [Beg]!>)! | %30
 z !arpeggio![Acf]!arpeggio![Acfa]!arpeggio![cfac'] | !arpeggio![fac'f']2 z2 | z [Gce] z [_e^fa] | %33
 z [dg] z!<(! [G=Be] | z [=Bf] z [df=b]!<)! |!>(! z [egc'] z [EGc]!>)! |!<(! z [ce] z [_e^fa]!<)! | %37
 z [dg] z [G=Be] |!>(! z [=Bf] z [df=b] | z!>)! [egc'] z c |"_cresc." z [f_ac'] z a | %41
 z [egc'] z c | z [f_ac'] z a | z [egc'] z C | z [F_Ac]!>(! z A | z [EGc] z _A!>)! | %46
[Q:1/4=82]"^rit.    -        -" z [EGc] z _A | !fermata!C4 | %48
!pp![Q:1/4=70]"^Lento." z [EG] z [F_A] | z [_G_d] z [_DG] | z [_DF] z [^CE] | z [^DA] z [A,=D] | %52
 z [A,^C] z [A,=C^F] | %53
 z[I:staff +1] [^G,=B,][I:staff -1] z[Q:1/4=120]"^ritard.     -          -          -          -" =F- | %54
 F4 x4 x4 x | x4 CEBcebc'e'!8va(!b'e''!8va)! C |!mp![Q:1/4=85]"^Tempo I." z [FAc] z [FAc] | %57
 z [EBc] z [EBc] | z [Acf] z [Acf] | z [_eac'] z [eac'] | z [dgb] z [Bdg] | z [Bea] z [Beg] | %62
 z [Acf] z [F_Ad] | z [GBe] z [EBd] | z [FAc] z [FAc] | z [EBc] z [Bc] | z [Acf] z [Acf] | %67
 z [^fad'] z [dac'] | z [dgb] z [B_dg] | z [Bea] z [Beg] | %70
 z !arpeggio![Acf]!arpeggio![Acfa]!arpeggio![cfac'] | !arpeggio![fac'f']2 z2 | z [Gce] z [_e^fa] | %73
!<(! z [dg] z [G=Be] | z [=Bf] z!<)! [df=b] |!>(! z [egc'] z [EGc]!>)! |!<(! z [ce] z [_e^fa]!<)! | %77
 z [dg]!>(! z [G=Be] | z [=Bf] z [df=b]!>)! | z [egc'] z c |"_cresc." z [f_ac'] z a | %81
 z [egc'] z c | z [f_ac'] z a | z [egc'] z C | z [F_Ac] z!>(! A | z [EGc] z _A | %86
[Q:1/4=82]"^rit." z [EGc] z!>)! _A | !fermata!C4 |[Q:1/4=70]"^Lento."!pp! z [Ec] z [F=B] | %89
 z [_A_B] z [GB] | z [_DB] z [C=A] | z [_E_A] z [EGc] | z [_G_e] z F | z [Bd] z [_Af] | %94
[Q:1/4=66]"^ritard.""^m. g." (!arpeggio![G-B-f]4 | [GBe]3) C | %96
[Q:1/4=85]"^Tempo I."!mp! z [FAc] z [FAc] | z [EBc] z [EBc] | z [Acf] z [Acf] | %99
 z [_eac'] z [eac'] | z [dgb] z [B_dg] | z [Bea] z [eg] | z [Acf] z [F_Ad] | z [GBe] z [EBd] | %104
 z [FAc] z [FAc] | z [EBc] z [Bc] |!<(! z [Acf] z [Acf] | z [^fad'] z [dac'] | %108
 z!<)! [dgb] z [dgb] | z [bg'] z [gbf'] |!>(! z [gbe'] z [fbd'] | z [^fc'] z!>)! [gb] | %112
 z [cfa] z!<(! [fd'] | z [fc'] z!<)! [=Bdf] | z [_Bfg] z!>(! [Bfg] | z!>)! [Beg] z [Be] | %116
!<(! z [ga] z!<)! [fd'] | z [bc'] z [cf] | z!>(! [cfa] z [faf'] | z [Beg] z [cec']!>)! | %120
 z [Acf] z F |!mf! z [b_d'f'] z [bd'f'] | z [ac'f'] z!>(! [Acf] | z [B_df] z [Bdf] | %124
 z [Acf] z!>)! [A,CF] |[K:bass]!p! z [_A,_DF] z [DF] | z [_A,_DF] z [A,DF] | %127
[Q:1/4=72]"^ritard." z [B,_DF] z [B,DF] | %128
[K:treble][Q:1/4=170] x2[I:staff +1] C,,2 A,,2[I:staff -1] x2[I:staff +1] C,2 A,2[I:staff -1] x2 C2 A2 x2 c2 a2 x2 c'2 a'2 x2 c''2 | %129
[Q:1/4=80]!8va(! a''2!8va)! z2 | !arpeggio![Acfa]4 | !fermata![A,CFA]4 |] %132
V:2
 C2[I:staff +1] =B,[I:staff -1]C | C2[I:staff +1] =B,[I:staff -1]C | %2
 F2[I:staff +1] E[I:staff -1]F | c4 | B2[I:staff +1] A[I:staff -1]G | A2[I:staff +1] G2 | %6
[I:staff -1] F2[I:staff +1] E[I:staff -1]D | E2[I:staff +1] D2 | %8
[I:staff -1] C2[I:staff +1] =B,[I:staff -1]C | C2[I:staff +1] =B,[I:staff -1]C | %10
 F2[I:staff +1] E[I:staff -1]F | d2[I:staff +1] c2 |[I:staff -1] B2[I:staff +1] ^F[I:staff -1]G | %13
 A2[I:staff +1] G2 |[I:staff -1] F4 | x4 | C2[I:staff +1] =B,[I:staff -1]C | %17
 C2[I:staff +1] =B,[I:staff -1]C | F2[I:staff +1] E[I:staff -1]F | c4 | %20
 B2[I:staff +1] A[I:staff -1]G | A2[I:staff +1] G2 |[I:staff -1] F2[I:staff +1] E[I:staff -1]D | %23
 E2[I:staff +1] D2 |[I:staff -1] C2[I:staff +1] =B,[I:staff -1]C | %25
 C2[I:staff +1] =B,[I:staff -1]C | F2[I:staff +1] E[I:staff -1]F | d2[I:staff +1] c2 | %28
[I:staff -1] B2[I:staff +1] ^F[I:staff -1]G | A2[I:staff +1] G2 |[I:staff -1] F4- | F2 z2 | %32
 E2[I:staff +1] =B[I:staff -1]A | G2[I:staff +1] D[I:staff -1]E | FG[I:staff +1]A[I:staff -1]=B | %35
 c2[I:staff +1] C2 |[I:staff -1] EG[I:staff +1]=B[I:staff -1]A | G2[I:staff +1] D[I:staff -1]E | %38
 FG[I:staff +1]A[I:staff -1]=B | c2[I:staff +1] C[I:staff -1]c | c2[I:staff +1] _e[I:staff -1]_d | %41
 c2[I:staff +1] C[I:staff -1]c | c2[I:staff +1] _e[I:staff -1]_d | c2[I:staff +1] C[I:staff -1]C | %44
 C2[I:staff +1] _E[I:staff -1]_D | C2[I:staff +1] _E[I:staff -1]_D | %46
 C2[I:staff +1] _E[I:staff -1]_D | x4 | x4 | x4 | x4 | x4 | x4 | x4 | x13 | x12!8va(! x2!8va)! x | %56
 C2[I:staff +1] =B,[I:staff -1]C | C2[I:staff +1] =B,[I:staff -1]C | %58
 F2[I:staff +1] E[I:staff -1]F | c4 | B2[I:staff +1] A[I:staff -1]G | A2[I:staff +1] G2 | %62
[I:staff -1] F2[I:staff +1] E[I:staff -1]D | E2[I:staff +1] D2 | %64
[I:staff -1] C2[I:staff +1] =B,[I:staff -1]C | C2[I:staff +1] =B,[I:staff -1]C | %66
 F2[I:staff +1] E[I:staff -1]F | d2[I:staff +1] c2 |[I:staff -1] B2[I:staff +1] ^F[I:staff -1]G | %69
 A2[I:staff +1] G2 |[I:staff -1] F4- | F2 x2 | E2[I:staff +1] =B[I:staff -1]A | %73
 G2[I:staff +1] D[I:staff -1]E | FG[I:staff +1]A[I:staff -1]=B | c2[I:staff +1] C2 | %76
[I:staff -1] EG[I:staff +1]=B[I:staff -1]A | G2[I:staff +1] D[I:staff -1]E | %78
 FG[I:staff +1]A[I:staff -1]=B | c2[I:staff +1] C[I:staff -1]c | c2[I:staff +1] _e[I:staff -1]_d | %81
 c2[I:staff +1] C[I:staff -1]c | c2[I:staff +1] _e[I:staff -1]_d | c2[I:staff +1] C[I:staff -1]C | %84
 C2[I:staff +1] _E[I:staff -1]_D | C2[I:staff +1] _E[I:staff -1]_D | %86
 C2[I:staff +1] _E[I:staff -1]_D | x4 | x4 | x4 | x4 | x4 | x4 | x4 | c'4- | c'3 x | %96
 C2[I:staff +1] =B,[I:staff -1]C | C2[I:staff +1] =B,[I:staff -1]C | %98
 F2[I:staff +1] E[I:staff -1]F | c4 | B2[I:staff +1] A[I:staff -1]G | %101
 A2[I:staff +1] G[I:staff -1]B | F2[I:staff +1] E[I:staff -1]D | E2[I:staff +1] D2 | %104
[I:staff -1] C2[I:staff +1] =B,[I:staff -1]C | C2[I:staff +1] =B,[I:staff -1]C | %106
 F2[I:staff +1] E[I:staff -1]F | d2[I:staff +1] c2 |[I:staff -1] B2[I:staff +1] A[I:staff -1]B | %109
 g2 f2 | e2 d2 | c2 B2 | A2 d2 | c2 F2 | G4- | G3- G/A/ | A2 d2 | c2 F2 | A4 | G3- G/F/ | F4 | %121
 f2[I:staff +1] e[I:staff -1]f | f4 | F2[I:staff +1] E[I:staff -1]F | F4 | %125
[K:bass] F,2[I:staff +1] E,[I:staff -1][F,_A,] | F,2[I:staff +1] E,[I:staff -1]F, | %127
 G,2[I:staff +1] F,[I:staff -1]G, |[K:treble] x34 |!8va(! x2!8va)! x2 | x4 | x4 |] %132
V:3
"^con  espressione"!ped! [F,,C,A,]2 [C,F,]2!ped-up! |!ped! [G,,E,_B,]2 [C,E,]2!ped-up! | %2
!ped! [A,,C]2 [A,C]2!ped-up! |!ped! [^F,,_E,A,]2 [^F,_EA]2!ped-up! | %4
!ped! [G,,D,B,]2 [B,D]2!ped-up! |!ped! [C,E,C]2 [B,C]2!ped-up! | %6
!ped! [A,,C]2!ped-up!!ped! [=B,,_A,]2!ped-up! |!ped! C,2 [E,B,]2!ped-up! | %8
!ped! [F,,C,A,]2 [C,F,]2!ped-up! |!ped! [G,,E,_B,]2 [C,E,]2!ped-up! |!ped! [A,,C]2 [A,C]2!ped-up! | %11
!ped! [D,^F]2[K:treble] [D^F]2!ped-up! |[K:bass]!ped! [G,,D,B,]2!ped-up!!ped! [B,_D]2!ped-up! | %13
!ped! [C,C]2 [B,CE]2!ped-up! |!ped! [F,,C,A,]2 (C2!ped-up! | =B,2!ped! _B,2)!ped-up! | %16
!ped! [F,,C,A,]2 [C,F,]2!ped-up! |!ped! [G,,E,_B,]2 [C,E,]2!ped-up! |!ped! [A,,C]2 [A,C]2!ped-up! | %19
!ped! [^F,,_E,A,]2 [^F,_EA]2!ped-up! |!ped! [G,,D,B,]2!ped-up!!ped! [B,_D]2!ped-up! | %21
!ped! [C,E,C]2 [B,C]2!ped-up! |!ped! [A,,F,C]2!ped-up!!ped! [=B,,_A,]2!ped-up! | %23
!ped! C,2 [E,B,]2!ped-up! |!ped! [F,,C,A,]2 [C,F,]2!ped-up! |!ped! [G,,E,_B,]2 [C,E,]2!ped-up! | %26
!ped! [A,,C]2 [A,C]2!ped-up! |!ped! [D,^F]2[K:treble] [D^F]2!ped-up! | %28
[K:bass]!ped! [G,,D,B,]2 [B,_D]2!ped-up! |!ped! [C,C]2 [B,CE]2!ped-up! |!ped! [F,,C,A,]2 [A,CF]2 | %31
 !arpeggio![F,CA]2 z2!ped-up! |!ped! [C,C]2[K:treble]!ped-up!!ped! [C_E^F]2!ped-up! | %33
[K:bass]!ped! [=B,,=B,]2 [G,B,]2!ped-up! |!ped! [G,,D,=B,]2 F2!ped-up! |!ped! [C,E]2 C2!ped-up! | %36
!ped! [C,,C,]2[K:treble]!ped-up!!ped! [C_E^F]2!ped-up! |[K:bass]!ped! [=B,,=B,]2 [G,B,]2!ped-up! | %38
!ped! [G,,=B,]2 F2!ped-up! |!ped! [C,E]2 C2!ped-up! |!ped! [F,,C,_A,]2[K:treble] [F_A]2!ped-up! | %41
[K:bass]!ped! [C,E,C]2 C2!ped-up! |!ped! [F,,C,_A,]2[K:treble] [F_A]2!ped-up! | %43
[K:bass]!ped! [C,E,C]2 C2!ped-up! |!ped! [F,,_A,,F,]2 [F,_A,]2!ped-up! | %45
!ped! [C,,G,,E,]2!ped-up!!ped! [F,_A,]2!ped-up! |!ped! [C,,G,,E,]2!ped-up!!ped! [F,_A,]2!ped-up! | %47
!ped! [C,,G,,E,]2 !fermata!z2!ped-up! | (C2 _C2 | B,2 __B,2 | _A,2 G,2 | ^F,2 =F,2 | E,2 _E,2 | %53
 D,2!ped! _D,2-) | [G,,-D,]4 G,,_D,G,B,[I:staff -1]FBfbf'!ped-up! | %55
!ped![I:staff +1] C,,C,G,B, x4 x4 x2 x!ped-up! |!ped! [F,,C,A,]2 [C,F,]2!ped-up! | %57
!ped! [G,,E,_B,]2 [C,E,]2!ped-up! |!ped! [A,,C]2 [A,C]2!ped-up! | %59
!ped! [^F,,_E,A,]2 [^F,_EA]2!ped-up! |!ped! [G,,D,B,]2 [B,D]2!ped-up! | %61
!ped! [C,C]2 [B,C]2!ped-up! |!ped! [A,,F,C]2!ped-up!!ped! [=B,,_A,]2!ped-up! | %63
!ped! C,2 [E,B,]2!ped-up! |!ped! [F,,C,A,]2 [C,F,]2!ped-up! | %65
!<(!!ped! [G,,E,_B,]2 [C,E,]2!ped-up! |!ped! [A,,C]2 [A,C]2!<)!!ped-up! | %67
!ped! [D,^F]2[K:treble] [D^F]2!ped-up! |[K:bass]!>(!!ped! [G,,D,B,]2!ped-up!!ped! [B,_D]2!ped-up! | %69
!ped! [C,C]2 [B,CE]2!>)!!ped-up! |!ped! [F,,A,]2 [A,CF]2 | !arpeggio![F,CA]2 z2!ped-up! | %72
!ped! [C,C]2[K:treble]!ped-up!!ped! [C_E^F]2!ped-up! |[K:bass]!ped! [=B,,=B,]2 [G,B,]2!ped-up! | %74
!ped! [G,,D,=B,]2 F2!ped-up! |!ped! [C,E]2 C2!ped-up! | %76
!ped! [C,,C,]2[K:treble]!ped-up!!ped! [C_E^F]2!ped-up! |[K:bass]!ped! [=B,,=B,]2 [G,B,]2!ped-up! | %78
!ped! [G,,D,=B,]2 F2!ped-up! |!ped! [C,E]2 C2!ped-up! |!ped! [F,,C,_A,]2[K:treble] [F_A]2!ped-up! | %81
[K:bass]!ped! [C,E,C]2 C2!ped-up! |!ped! [F,,C,_A,]2[K:treble] [F_A]2!ped-up! | %83
[K:bass]!ped! [C,E,C]2 C2!ped-up! |!ped! [F,,_A,,F,]2 [F,_A,]2!ped-up! | %85
!ped! [C,,G,,E,]2!ped-up!!ped! [F,_A,]2!ped-up! |!ped! [C,,G,,E,]2!ped-up!!ped! [F,_A,]2!ped-up! | %87
!ped! [C,,G,,E,]2 !fermata!z2!ped-up! | (C,2 _D,2 | =D,2 _E,2 | =E,2 F,2 | ^F,2 G,2 | ^G,2 A,2 | %93
 B,2 =B,2 |!ped! !arpeggio![C,C]4-) | [C,C]4!ped-up! |!ped! [F,,C,A,]2 [C,F,]2!ped-up! | %97
!ped! [G,,E,_B,]2 [C,E,]2!ped-up! |!ped! [A,,C]2 [A,C]2!ped-up! | %99
!ped! [^F,,_E,A,]2 [^F,_EA]2!ped-up! |!ped! [G,,D,B,]2!ped-up!!ped! [B,_D]2!ped-up! | %101
!ped! [C,C]2 [B,C]2!ped-up! |!ped! [A,,F,C]2!ped-up!!ped! [=B,,_A,]2!ped-up! | %103
!ped! C,2 [E,B,]2!ped-up! |!ped! [F,,C,A,]2 [C,F,]2!ped-up! |!ped! [G,,E,_B,]2 [C,E,]2!ped-up! | %106
!ped! [A,,F,C]2 [A,C]2!ped-up! |!ped! [D,,A,,^F,]2[K:treble] [D^F]2!ped-up! | %108
[K:bass]!ped! [G,,D,B,]2 [B,D]2!ped-up! |!ped! _D4[K:treble]!ped-up! | %110
[K:bass]!ped! C2!ped-up!!ped! =D2!ped-up! |!ped! _E2!ped-up!!ped! =E2!ped-up! | %112
!ped! F2!ped-up!!ped! B,2!ped-up! |!ped! A,2!ped-up!!ped! _A,2!ped-up! |!ped! G,2 F2!ped-up! | %115
!ped! E4!ped-up! |!ped! E2!ped-up!!ped! F2!ped-up! |!ped! G2!ped-up!!ped! A2!ped-up! | %118
!ped! [C,,C,]2 [A,CF]2!ped-up! |!ped! C,2 [B,CE]2!ped-up! |!ped! [F,,C,A,]2 [A,C]2!ped-up! | %121
!ped! [B,,F,_D]2[K:treble] [B_d]2!ped-up! |!ped! [FAc]2 F2!ped-up! | %123
[K:bass]!ped! [B,,F,_D]2 [B,D]2!ped-up! |!ped! [F,A,C]2 F,2!ped-up! | %125
!ped! _D,,2 [_A,,_D,]2!ped-up! |!ped! C,,2 [_A,,_D,]2!ped-up! |!ped! B,,,2 [B,,_D,]2!ped-up! | %128
!ped! F,,,2 x2 x2 F,,2 x2 x2 F,2 x2 x2[I:staff -1] F2[I:staff +1] x2 x2[I:staff -1] f2[I:staff +1] x2 x2[I:staff -1] f'2[I:staff +1] x2 | %129
 z4 | !arpeggio![F,A,CF]4 | !fermata![F,,,F,,]4!ped-up! |] %132
V:4
 x4 | x4 | x4 | x4 | x4 | x4 | x4 | x4 | x4 | x4 | x4 | x2[K:treble] x2 |[K:bass] x4 | x4 | x4 | %15
 x4 | x4 | x4 | x4 | x4 | x4 | x4 | x4 | x4 | x4 | x4 | x4 | x2[K:treble] x2 |[K:bass] x4 | x4 | %30
 x4 | x4 | x[K:treble] x3 |[K:bass] x4 | x4 | x4 | x[K:treble] x3 |[K:bass] x4 | x4 | x4 | %40
 x2[K:treble] x2 |[K:bass] x4 | x2[K:treble] x2 |[K:bass] x4 | x4 | x4 | x4 | x4 | x4 | x4 | x4 | %51
 x4 | x4 | x2 x [=G,_B,]- | [G,B,]4 x x8 | x15 | x4 | x4 | x4 | x4 | x4 | x4 | x4 | x4 | x4 | x4 | %66
 x4 | x2[K:treble] x2 |[K:bass] x4 | x4 | x4 | x4 | x[K:treble] x3 |[K:bass] x4 | x4 | x4 | %76
 x[K:treble] x3 |[K:bass] x4 | x4 | x4 | x2[K:treble] x2 |[K:bass] x4 | x2[K:treble] x2 | %83
[K:bass] x4 | x4 | x4 | x4 | x4 | x4 | x4 | x4 | x4 | x4 | x4 | x4 | x4 | x4 | x4 | x4 | x4 | x4 | %101
 x4 | x4 | x4 | x4 | x4 | x4 | x2[K:treble] x2 |[K:bass] x4 | B,,2[K:treble] [G_d]2 | %110
[K:bass] C,4- | C,2 z2 | F,2 z2 | z4 | C,4- | C,2 C,2 | ^C,2 D,2 | E,2 F,2 | x4 | x4 | x4 | %121
 x2[K:treble] x2 | x4 |[K:bass] x4 | x4 | x4 | x4 | x4 | x34 | x4 | x4 | x4 |] %132

